X: 1
T: Sappu S\"akkij\"arvelt\"a
P: Play ABAC
O: Finland
B: Tanhuvakka S\"avelmist\"o p.129
Q: 1/4=108
Z: John Chambers <jc@trillian.mit.edu>
M: 2/4
L: 1/16
K: F
"A"\
|: "F"c2cd c2cd | "C7"c2c2 cBAG | "F"FEFD "C7"C2FE |1 "F"F4 C4 :|2 "F"F4 F2z2 ||
"B"\
[| "F"A4 F4 | AGAB c2c2 | "C7"B4 G4 | BABc d2d2 \
|  "F"A4 F4 | AGAB c2c2 | "C7"B2cB A2G2 | "F"F4 F2"d.C."z2 |]
"C"\
[| "F"c4 c4 | "Bb"d4 d4 | "C7"e2e2 e2de | "F"f2a2 f2z2 \
|  "F"c2cA c2cA | "Bb"d2dB d2dB | "C7"e2e2 e2de | "F"f4 f2z2 |]

%%sep 1 1 500

